!!!COM: Henri Duparc
!!!CNT: Francais
!!!TXO: Francais
!!!OTL: Le Galop
!!!LYR: Rene/~Franc5ois Sully~Prudhomme
!!!ENC: Jacob Pegg
!!!YOR: Henri Duparc: Complete Songs for Voice and Piano
!!!YOR: New York: Dover publications, inc., 1995 
!!!YOR: ISBN 0-486-28466-2
!!!ODT: 1869/
!!NB: Vocal melody and text only encoded.
**kern	**silbe
*clef F4	*
*k[b-e-]	*
*M4/4	*
*MM[allegro]	*
!! created: 6/23/03 21:32
!! proofed and posted: 7/21/03 21:51
=4	=4
2r	.
4r	.
{4C#	{A-
=5	=5
4.D	-gi-
8D	-te,
4.G	bon
8G	che-
=6	=6
[4B-	-val,
8B-]}	|}
8r	.
{4C#	{ta
4C#	cri-
=7	=7
2D	-nie\-
4.G	-re
8G	fu-
=8	=8
2B-	-yan-
8B-}	-te,}
8r	.
{4G	{Que
=9	=9
4A	l'air
(4A	au-
4c	-tour
4e-)	de
=10	=10
(4d	nous
4B-)	|
4G	se
4C#	rem-
=11	=11
2D	-plis-
4D	-se
4D	de
=12	=12
2G}	voix,}
4r	.
{8D	{Que
8D	j'en-
=13	=13
2G	-ten-
4G	-de
4G	cra-
=14	=14
2B-	-quer
4D	sous
4D	ta
=15	=15
2G	cor-
4.G	-ne
(8G	bru-
=16	=16
4B-)	-yan-
8B-}	-te}
8r	.
{4B-	{Le
4B-	gra-
=17	=17
2A	-vier
4d	des
4f	ruis-
=18	=18
4en	-seaux
4d	et
4B-	les
4En	de/-
=19	=19
2.A	-bris
4A	des
=20	=20
2D}	bois.}
4r	.
{8D	{Aux
8D	va-
=21	=21
2e-	-peurs
4c	de
4F#	tes
=22	=22
2A}	flancs}
4r	.
{4A	{me^-
=23	=23
4c	-le
4e-	ta
(4.e-	chaude
8G)	ha-
=24	=24
4G	-lei-
4F#}	-ne,}
2r	.
=25	=25
1r	.
=26	=26
2r	.
4r	.
{8G	{Aux
8G	e/-
=27	=27
2f	-clairs
4D	de
4F	tes
=28	=28
2A-}	pieds,}
4r	.
{4D	{ton
=29	=29
4F	e/-
4A-	-cume
4d	et
4c	ton
=30	=30
2Bn}	sang.}
2r	.
=31	=31
1r	.
=32	=32
2r	.
{2G	{Cours,
=33	=33
4G	com-
(4G	-me on
4.B-)	voit
8G	un
=34	=34
4A-	ai-
4A-}	-gle,}
4r	.
{4A-	{en
=35	=35
4.F	ef-
8F	-fleu-
4d	-rant
4Bn	la
=36	=36
4c	plai-
4c}	-ne,}
4r	.
{8A	{Fouet-
8A	-ter
=37	=37
2A	l'her-
4A}	-be}
8r	.
{8A	{d'un
=38	=38
4.c	vol
8c	so-
[2c	-nore
=39	=39
4c]	|
4A	et
4A	fre/-
4A	-mis-
=40	=40
2En}	-sant.}
2r	.
=41	=41
1r	.
=42	=42
2r	.
2r	.
=43	=43
2r	.
4r	.
8r	.
{8en	{Al-
=44	=44
2en}	-lons!}
4r	.
{(12En	{Les
12En	jeu-
12En)	-nes
=45	=45
[4En	gens,
(12En]	|
12En	a\
12En)	la
[4F	nage,
(12F]	|
12F	a\
12F)	la
=46	=46
2c	na-
4c}	-ge,}
8r	.
{8en	{Al-
=47	=47
2en}	-lons,}
4r	.
{(12En	{les
12En	jeu-
12En)	-nes
=48	=48
[4G#	gens,
(12G#]	|
12G#	a\
12G#)	la
[4c#	nage,
(12c#]	|
12c#	a\
12c#)	la
=49	=49
2d#	na-
4d#}	-ge,}
8r	.
{8D#	{Crie
=50	=50
8E-	a\
8E-	ses
8E-	ca-
8E-	-va-
4A-	-liers
8A-	le
8A-	vieux
=51	=51
4E-	chef
8E-	de
8E-	tri-
4A-}	-bu,}
4r	.
=52	=52
{4G	{Et
4G	les
4Bn	fils
8Bn	du
8Bn	de/-
=53	=53
4.G	-sert
8G	res-
8Bn	-pi-
8Bn	-rent
8Bn	le
8Bn	pil-
=54	=54
2G	-la-
4G}	-ge,}
4r	.
=55	=55
{4G	{Et
8.G	les
16G	che-
4A-	-vaux
4A-	sont
=56	=56
2e-}	fous}
4r	.
{8A-	{du
8A-	grand
=57	=57
2G	air
4A-	qu'ils
4A-	ont
=58	=58
[1e-	bu.
=59	=59
4e-]}	|}
4r	.
2r	.
=60	=60
1r	.
=61	=61
*k[f#c#g#d#]	*
{(2.B	{Nage
4E)	ain-
=62	=62
2D#	-si
(8D#	dans
8F#)	|
(8A	l'es-
8cn)	|
=63	=63
2B	-pa-
8B}	-ce,}
8r	.
{4E	{o^
=64	=64
4.D#	mon
8F#	che-
4A	-val
4cn	ra-
=65	=65
2c#	-pi-
8c#}	-de.}
8r	.
{4c#	{A-
=66	=66
8.dn	-breu-
16A	-ve~
(2a	~moi
4f#)	d'air
=67	=67
2c#	pur,
(8B	bai-
8A)	|
(8G#	-gne~
8F#)	|
=68	=68
2G#	~moi
4.G#	dans
8G#	le
=69	=69
2C#}	vent,}
4r	.
{8C#	{L'e/-
8C#	-tri-
=70	=70
2Dn	-er
4Fn	bat
4G#	ton
=71	=71
2B	ven-
8B}	-tre,}
8r	.
{4D#	{et
=72	=72
4.E	j'ai
8F#	la^-
4G#	-che/
4B	la
=73	=73
2dn	bri-
8dn}	-de.}
8r	.
{4F#	{Mon
=74	=74
4.Gn	corps
8A	te
4B	touche
4dn	a\
=75	=75
2e-	pei-
8e-}	-ne,}
8r	.
{4cn	{il
=76	=76
4.A	vole
8Gn	en
8.F#	te
16G#	|
8.A	sui-
16B	|
=77	=77
2cn}	-vant.}
2r	.
!!78-80 rest
=81	=81
*k[b-e-]	*
2r	.
4r	.
{8.c#	{Bri-
16c#	-se
=82	=82
2d}	tout,}
4r	.
{8D	{le
8D	buis-
=83	=83
4G	-son,
8G	la
8G	bar-
4B-	-rie\re
8B-	ou
8B-	la
=84	=84
4d	bran-
4d}	-che.}
2r	.
=85	=85
1r	.
=86	=86
2r	.
4r	.
8r	.
{8C	{Tor-
=87	=87
4.F	-rents,
8F	fos-
4.A-	-se/s,
8A-	ta-
=88	=88
2c}	-lus,}
4r	.
{8C	{Fran-
8C	-chis
=89	=89
2F	tout
4F	d'un
4A-	seul
=90	=90
2c}	bond.}
2r	.
=91	=91
4r	.
{2.Bn	{Cours,
=92	=92
2.d	cours
4d	je
=93	=93
1d	re^ve
=94	=94
2d	et
2d	sur
=95	=95
(2d	toi,
4Bn	les
4G	yeux
=96	=96
2F#)	clos,
(8F#	je
8A)	|
(8c	me
8e-)	|
=97	=97
2d	pen-
8Bn}	-che,}
8r	.
{4G	{Em-
=98	=98
(4.e-	-porte,
8c	em-
4A	-por-
4F#)	-te~
=99	=99
[1en	~moi
=100	=100
4en]	|
4F#	dans
4G	l'in-
4C#	-con-
=101	=101
2.D	-nu
(4D	pro-
=102	=102
1GG)}	-fond!}
*-	*-
